X: 115201
T: MISS STEWART
Q: "Strathspey."
R:  Strathspey.
%R: strathspey
B: James Kerr "Merry Melodies" v.1 p.15 s.2 #1
Z: 2017 John Chambers <jc:trillian.mit.edu>
M: C
L: 1/16
K: A
uc2 |\
vAuA3 vc3uA (3(c2d2e2) c4 | B=G3 B3c dcBA G3B |\
AA3 c3A (3(c2d2e2) c4 | ca3 ef3 cA3 A2 ::\
ug2 |\
va3veua3ue agfe a3ue | v=g3vdug3ud B=G3 G3u^g |
a3ea3e agfe a3e | f3ea3e cA3 A3g |\
a3ea3e agfe a3e | =g3dg3d B=G3 G3B |\
AA3 c3A (3(c2d2e2) c4 | ca3 e3f cA3 A2 :|

%%sep 1 1 500
%%sep 1 1 500

